svg/editor/omega_fill.svg

<?xml version="1.0" encoding="UTF-8"?>
<svg width="24px" height="24px" viewBox="0 0 24 24" version="1.1" xmlns="http://www.w3.org/2000/svg" xmlns:xlink="http://www.w3.org/1999/xlink">
    <title>Ωomega_fill</title>
    <g id="页面-1" stroke="none" stroke-width="1" fill="none" fill-rule="evenodd">
        <g id="Editor" transform="translate(-864.000000, -144.000000)">
            <g id="Ωomega_fill" transform="translate(864.000000, 144.000000)">
                 <path d="M24,0 L24,24 L0,24 L0,0 L24,0 Z M12.5934901,23.257841 L12.5819402,23.2595131 L12.5108777,23.2950439 L12.4918791,23.2987469 L12.4918791,23.2987469 L12.4767152,23.2950439 L12.4056548,23.2595131 C12.3958229,23.2563662 12.3870493,23.2590235 12.3821421,23.2649074 L12.3780323,23.275831 L12.360941,23.7031097 L12.3658947,23.7234994 L12.3769048,23.7357139 L12.4804777,23.8096931 L12.4953491,23.8136134 L12.4953491,23.8136134 L12.5071152,23.8096931 L12.6106902,23.7357139 L12.6232938,23.7196733 L12.6232938,23.7196733 L12.6266527,23.7031097 L12.609561,23.275831 C12.6075724,23.2657013 12.6010112,23.2592993 12.5934901,23.257841 L12.5934901,23.257841 Z M12.8583906,23.1452862 L12.8445485,23.1473072 L12.6598443,23.2396597 L12.6498822,23.2499052 L12.6498822,23.2499052 L12.6471943,23.2611114 L12.6650943,23.6906389 L12.6699349,23.7034178 L12.6699349,23.7034178 L12.678386,23.7104931 L12.8793402,23.8032389 C12.8914285,23.8068999 12.9022333,23.8029875 12.9078286,23.7952264 L12.9118235,23.7811639 L12.8776777,23.1665331 C12.8752882,23.1545897 12.8674102,23.1470016 12.8583906,23.1452862 L12.8583906,23.1452862 Z M12.1430473,23.1473072 C12.1332178,23.1423925 12.1221763,23.1452606 12.1156365,23.1525954 L12.1099173,23.1665331 L12.0757714,23.7811639 C12.0751323,23.7926639 12.0828099,23.8018602 12.0926481,23.8045676 L12.108256,23.8032389 L12.3092106,23.7104931 L12.3186497,23.7024347 L12.3186497,23.7024347 L12.3225043,23.6906389 L12.340401,23.2611114 L12.337245,23.2485176 L12.337245,23.2485176 L12.3277531,23.2396597 L12.1430473,23.1473072 Z" id="MingCute" fill-rule="nonzero"></path>
                <path d="M12,4.5 C8.41015,4.5 5.5,7.41015 5.5,11 C5.5,13.9715 7.49522,16.4809 10.222,17.2542 C10.9545,17.462 11.5,18.1338 11.5,18.9418 L11.5,20.75 C11.5,21.7165 10.7165,22.5 9.75,22.5 L6,22.5 C5.17157,22.5 4.5,21.8284 4.5,21 C4.5,20.1716 5.17157,19.5 6,19.5 L7.75368,19.5 C4.6394,17.9413 2.5,14.7219 2.5,11 C2.5,5.75329 6.75329,1.5 12,1.5 C17.2467,1.5 21.5,5.75329 21.5,11 C21.5,14.7219 19.3606,17.9413 16.2463,19.5 L18,19.5 C18.8284,19.5 19.5,20.1716 19.5,21 C19.5,21.8284 18.8284,22.5 18,22.5 L14.25,22.5 C13.2835,22.5 12.5,21.7165 12.5,20.75 L12.5,18.9418 C12.5,18.1338 13.0455,17.462 13.778,17.2542 C16.5048,16.4809 18.5,13.9715 18.5,11 C18.5,7.41015 15.5899,4.5 12,4.5 Z" id="路径" fill="#09244B"></path>
            </g>
        </g>
    </g>
</svg>

<svg xmlns="http://www.w3.org/2000/svg" width="24" height="24"><g fill="none" fill-rule="evenodd"><path d="M24 0v24H0V0h24ZM12.593 23.258l-.011.002-.071.035-.02.004-.014-.004-.071-.035c-.01-.004-.019-.001-.024.005l-.004.01-.017.428.005.02.01.013.104.074.015.004.012-.004.104-.074.012-.016.004-.017-.017-.427c-.002-.01-.009-.017-.017-.018Zm.265-.113-.013.002-.185.093-.01.01-.003.011.018.43.005.012.008.007.201.093c.012.004.023 0 .029-.008l.004-.014-.034-.614c-.003-.012-.01-.02-.02-.022Zm-.715.002a.023.023 0 0 0-.027.006l-.006.014-.034.614c0 .012.007.02.017.024l.015-.002.201-.093.01-.008.004-.011.017-.43-.003-.012-.01-.01-.184-.092Z"/><path fill="#09244B" d="M12 4.5a6.5 6.5 0 0 0-1.778 12.754c.732.208 1.278.88 1.278 1.688v1.808a1.75 1.75 0 0 1-1.75 1.75H6a1.5 1.5 0 0 1 0-3h1.754A9.498 9.498 0 0 1 2.5 11a9.5 9.5 0 1 1 19 0 9.498 9.498 0 0 1-5.254 8.5H18a1.5 1.5 0 0 1 0 3h-3.75a1.75 1.75 0 0 1-1.75-1.75v-1.808c0-.808.546-1.48 1.278-1.688A6.5 6.5 0 0 0 12 4.5Z"/></g></svg>
